X: 1014
T: Hey Onbeşli Onbeşli 
C: Hamdi Tüfekçi
O: Turkey
F: http://compmusic.upf.edu/node/140
N: huseyni--turku--sofyan--hey_onbesli--tokat
N: makam= huseyni
N: form= turku
N: usul= sofyan = 4/4
M: 4/4
L: 1/16
K: C _2/4B ^3/4f  
Q: 1/4=78
%%MIDI tuningsystem comma53
d2dB c2BA A2AG A2BA  | A/d/cdB c2BA A4 A4  | 
w:  ARANAĞME  |   | 
d2dB c2BA A2AG A2BA  | c2{e}dB c2BA A3A A4  | 
w:   |   | 
d2dB c2BA A2AG A2BA  | A/d/cdB c2BA A4 A4  | 
w:  ARANAĞME  |   | 
d2dB c2BA A2AG A2BA  | c2{e}dB c2BA A3A A4  | 
w:   |   | 
z2cd e2e2 e2{f}d2 .e4  | z2cd e2e2 e2{f}d2 e2z2  | \
w:  Hey_ on beş li  on *  beş li    |  To kat  yol la rı  *  taş lı    | 
z2cd e2e2 e2{f}d2 .e4  | 
w:  Hey_ on beş li  on *  beş li    | 
z2cd e2e2 e2{f}d2 e2z2  | g2gf gfge ee2d e2dc  | 
w:  To kat  yol la rı  *  taş lı    |  On beş *  li ler  *  *  ge li *  yor    | 
d2dd d2d2 d3/2e/ce d2z2  | d2dB c2BA A2AG A2BA  | 
w:  *  Kız la rın  gö zü  *  yaş *  lı    |  As lan  *  yâ rim  *  kız  se nin_ a dın   | 
A/d/cdB c2BA A4 A4  | d2dB c2BA A2AG A2BA  | 
w:  He *  *  di *  *  *  *  ye    |  Ben  do *  lan dım  *  sen  de  *  do lan   | 
c2dB c2BA A3A A4  | d2dB c2BA A2AG AABA  | 
w:  gel  *  *  ge di *  ye    |  Fis tan_ *  al dım  *  en dâ *  ze si   | 
A/d/cdB c/d/cBA A3A A4  | d2dB c2BA A2AG A2BA  | 
w:  on *  *  *  *  ye *  *  di *  ye    |  ARANAĞME  | 
A/d/cdB c2BA A4 A4  | d2dB c2BA A2AG A2BA  | 
w:   |   | 
c2{e}dB c2BA A3A A4  | d2dB c2BA A2AG A2BA  | 
w:   |  ARANAĞME  | 
A/d/cdB c2BA A4 A4  | d2dB c2BA A2AG A2BA  | 
w:   |   | 
c2{e}dB c2BA A3A A4  | z2cd e2e2 e2{f}d2 .e4  | \
w:   |  Hey_ on beş li  on *  beş li    | 
z2cd e2e2 e2{f}d2 e2z2  | 
w:  To kat  yol la rı  *  taş lı    | 
z2cd e2e2 e2{f}d2 .e4  | z2cd e2e2 e2{f}d2 e2z2  | \
w:  Hey_ on beş li  on *  beş li    |  To kat  yol la rı  *  taş lı    | 
g2gf gfge ee2d e2dc  | 
w:  On beş *  li ler  *  *  ge li *  yor    | 
d2dd d2d2 d3/2e/ce d2z2  | d2dB c2BA A2AG A2BA  | 
w:  *  Kız la rın  gö zü  *  yaş *  lı    |  As lan  *  yâ rim  *  kız  se nin_ a dın   | 
A/d/cdB c2BA A4 A4  | d2dB c2BA A2AG A2BA  | 
w:  He *  *  di *  *  *  *  ye    |  Ben  do *  lan dım  *  sen  de  *  do lan   | 
c2dB c2BA A3A A4  | d2dB c2BA A2AG AABA  | 
w:  gel  *  *  ge di *  ye    |  Fis tan_ *  al dım  *  en dâ *  ze si   | 
A/d/cdB c/d/cBA A3A A4  | |


